Project/img/marker.svg

<svg xmlns="http://www.w3.org/2000/svg" xmlns:xlink="http://www.w3.org/1999/xlink" preserveAspectRatio="xMidYMid" width="19.188" height="25.62" viewBox="0 0 19.188 25.62">
  <defs>
    <style>
      .cls-1 {
        fill: #f38181;
        fill-rule: evenodd;
      }
    </style>
  </defs>
  <path d="M9.594,25.610 C9.594,25.610 -0.006,14.911 -0.006,9.610 C-0.006,4.309 4.292,0.010 9.594,0.010 C14.896,0.010 19.194,4.309 19.194,9.610 C19.194,14.911 9.594,25.610 9.594,25.610 ZM9.594,3.210 C6.060,3.210 3.194,6.075 3.194,9.610 C3.194,13.144 6.060,16.010 9.594,16.010 C13.128,16.010 15.994,13.144 15.994,9.610 C15.994,6.075 13.128,3.210 9.594,3.210 ZM9.594,12.810 C7.827,12.810 6.394,11.377 6.394,9.610 C6.394,7.842 7.827,6.410 9.594,6.410 C11.361,6.410 12.794,7.842 12.794,9.610 C12.794,11.377 11.361,12.810 9.594,12.810 Z" class="cls-1"/>
</svg>

<svg xmlns="http://www.w3.org/2000/svg" width="19.188" height="25.62" preserveAspectRatio="xMidYMid"><defs><style>.cls-1 { fill: #f38181; fill-rule: evenodd; }</style></defs><path d="M9.6 25.6S0 14.9 0 9.6C0 4.3 4.3 0 9.6 0s9.6 4.3 9.6 9.6-9.6 16-9.6 16zm0-22.4c-3.54 0-6.4 2.88-6.4 6.4 0 3.54 2.86 6.4 6.4 6.4 3.53 0 6.4-2.86 6.4-6.4 0-3.52-2.87-6.4-6.4-6.4zm0 9.6c-1.77 0-3.2-1.42-3.2-3.2 0-1.76 1.43-3.2 3.2-3.2 1.76 0 3.2 1.44 3.2 3.2 0 1.78-1.44 3.2-3.2 3.2z" class="cls-1"/></svg>
